Images/Icon/home.svg

<?xml version="1.0"?><svg xmlns="http://www.w3.org/2000/svg"  viewBox="0 0 30 30" width="30px" height="30px">    <path d="M 15 2 A 1 1 0 0 0 14.300781 2.2851562 L 3.3925781 11.207031 A 1 1 0 0 0 3.3554688 11.236328 L 3.3183594 11.267578 L 3.3183594 11.269531 A 1 1 0 0 0 3 12 A 1 1 0 0 0 4 13 L 5 13 L 5 24 C 5 25.105 5.895 26 7 26 L 23 26 C 24.105 26 25 25.105 25 24 L 25 13 L 26 13 A 1 1 0 0 0 27 12 A 1 1 0 0 0 26.681641 11.267578 L 26.666016 11.255859 A 1 1 0 0 0 26.597656 11.199219 L 25 9.8925781 L 25 6 C 25 5.448 24.552 5 24 5 L 23 5 C 22.448 5 22 5.448 22 6 L 22 7.4394531 L 15.677734 2.2675781 A 1 1 0 0 0 15 2 z M 18 15 L 22 15 L 22 23 L 18 23 L 18 15 z"/></svg>

<?xml version="1.0" encoding="UTF-8"?>
<svg xmlns="http://www.w3.org/2000/svg" width="30px" height="30px"><path d="M15 2a1 1 0 00-.7.29L3.39 11.21l-.03.03-.04.03A1 1 0 003 12a1 1 0 001 1h1v11a2 2 0 002 2h16a2 2 0 002-2V13h1a1 1 0 001-1 1 1 0 00-.32-.73l-.01-.01-.07-.06L25 9.89V6a1 1 0 00-1-1h-1a1 1 0 00-1 1v1.44l-6.32-5.17A1 1 0 0015 2m3 13h4v8h-4z"/></svg>
